X:1
T:Title
%%score 1 { 2 | 3 }
L:1/8
Q:1/4=105
M:4/4
K:Ab
V:1 treble nm="Grand Piano, Soprano"
V:2 bass nm="Choir Pad, Bass"
V:3 bass 
V:1
 [CE] [CE]2 [DF] [CE]2 [A,C][CA]- | [CA]4 [CE] [DF]2 [EG] | [FA]2 [DF][CE]- [CE]3- [CE]/ z/ | %3
w: By~W.~Lee~Dunlavy,~1885 * * * * *|||
 [CE] [DF]2 [FA] [FA]2 [DF][CE] | [CA]4 [CA] [EG]2 [EA] | [EB]2 [Ec][EB]- [EB]3- [EB]/ z/ | %6
w: |||
 [EB] [Ec]2 [Ec] [Ec]2 [DB][CA] | [CE]4 [CA] [DB]2 [DA] | [DG]2 [DF][CE]- [CE]3- [CE]/ z/ | %9
w: |||
 [CE] [DF]2 [EG] [EA]2 [EB][Ec] | [Ee]4 [Fd] [Ec]2 [EA] | [Ec]2 [DB][CA]- [CA]3- [CA]/ z/ | %12
w: |||
 z [Ec]2 [Ec] [Ec]2 [Fd][Ec] | [EA]4 z [Gd]2 [Gd] | [Gd]2 [Ge][Gd] [EB]4 | %15
w: |||
 z [Ec]2 [Ec] [Ec]2 [Fd][Ec] | [EA]4 z [Ec]2 [EB] | [EB]2 [EB][EB]- [EB]3- [EB]/ z/ | %18
w: |||
 z [Ec]2 [Ec] [Ec]2 [Fd][Ec] | [EA]4 z [Gd]2 [Gd] | [Gd]2 [Ge][Gd] [EB]4 | %21
w: |||
 z [Ec]2 [Ec] [Ec]2 [Fd][Ec] | [EA]2 [Ae]2 [Fd] [Ec]3 | [EB]3 [EA]- [EA]4- | [EA]4 z4 |] %25
w: ||||
V:2
 A, A,2 A, A,2 E,E,- | E,4 A, A,2 A, | A,2 A,A,- A,3- A,/ z/ | A, A,2 A, A,2 A,A, | E,4 E, E,2 F, | %5
 G,2 A,G,- G,3- G,/ z/ | G, A,2 A, A,2 G,A, | A,4 A, F,2 F, | G,2 A,A,- A,3- A,/ z/ | %9
 A, A,2 B, A,2 G,A, | C4 A, A,2 C | A,2 G,A,- A,3- A,/ z/ | z A,2 A, A,2 A,A, | C4 z B,2 B, | %14
 B,2 CB, G,4 | z A,2 A, A,2 A,A, | C4 z A,2 G, | G,2 G,G,- G,3- G,/ z/ | z A,2 A, A,2 A,A, | %19
 C4 z B,2 B, | B,2 CB, G,4 | z A,2 A, A,2 A,A, | C2 A,2 A,[K:treble] A,3 | D3 C- C4- | C4 z4 |] %25
V:3
 A,, A,,2 A,, A,,2 A,,A,,- | A,,4 A,, D,2 D, | D,2 D,A,,- A,,3- A,,/ z/ | A,, D,2 D, D,2 D,A,, | %4
 A,,4 .A,,2 z E, | E,2 E,E,- E,3- E,/ z/ | .E,2 z2 z2 E,A,, | A,,4 A,, D,2 D, | %8
 D,2 D,A,,- A,,3- A,,/ z/ | A,, D,2 D, C,2 .E,2 | A,4 D, E,2 E, | E,2 E,A,,- A,,3- A,,/ z/ | z8 | %13
 A,4 z E,2 E, | E,2 E,E, E,4 | z8 | A,4 z E,2 E, | E,2 E,E,- E,3- E,/ z/ | z8 | A,4 z E,2 E, | %20
 E,2 E,E, E,4 | z8 | A,2 C,2 D, E,3 | E,3 A,,- A,,4- | A,,4 z4 |] %25

